!!!COM: Mendelssohn, Felix 
!!!CDT: 1809///-1847///
!!!OTL@@DE: Lieder ohne Worte, <i>Venetianisches Gondellied</i>, Op. 19, No. 6
!!!OTL@EN: Song without words, <i>Venetian Gondolier</i>, Op. 19, No. 6
!!!ODT: 1830/10/16/
!!!PDT: 1833///
!!!OMD: Andante sostenuto
**kern	**kern	**dynam
*staff2	*staff1	*staff1/2
*clefF4	*clefG2	*clefG2
*k[b-e-]	*k[b-e-]	*k[b-e-]
*g:	*g:	*g:
*M6/8	*M6/8	*M6/8
*MM60	*MM60	*MM60
=1-	=1-	=1-
*^	*	*
8r	4GG\	2.r	.
8G/ (8B-/L	.	.	.
8D/J)	8r	.	.
8r	4GG\	.	.
8G/ (8B-/L	.	.	.
8D/J)	8r	.	.
=2	=2	=2	=2
8r	4GG\	2.r	.
8G/ (8B-/L	.	.	.
8D/J)	8r	.	.
8r	4GG\	.	.
8G/ 8A/ (8c/L	.	.	.
8E-/J)	8r	.	.
=3	=3	=3	=3
8r	4GGG\ 4GG\	4.d/	<
8G/ 8B-/L	.	.	.
&(8D/J&)	8r	.	.
8r	4FFF\ 4FF\	([4.fn/	>
8A/ 8c/L	.	.	.
8F/J	8r	.	.
=4	=4	=4	=4
8r	4BBB-\ 4BB-\	4.f/]	.
8B-/ 8d/L	.	.	.
8F/J	8r	.	.
8r	4CC\ 4C\	4.e-/	.
8G/ 8c/L	.	.	.
8E-/J	8r	.	.
=5	=5	=5	=5
8r	4DD\	[4.d/	p
8G/ 8B-/L	.	.	.
8D/J	8r	.	.
8r	4DD\	4d/])	.
8G/ 8B-/L	.	.	.
8D/J	8r	8r	.
=6	=6	=6	=6
8r	4DD\	2.r	.
8A/ 8c/L	.	.	.
8D/J	8r	.	.
8r	4DD\	.	.
8F#/ 8A/L	.	.	.
8D/J	8r	.	.
*v	*v	*	*
=7	=7	=7
8GG'\L	4r	.
8G\ 8B-\	.	.
&(8D\J&)	8r	.
8GG'\L	4r	.
8G\ 8B-\	.	.
&(8D\J&)	8b-\ (8dd\	.
=8	=8	=8
8GG'\L	4a\ 4cc\	.
8A\ 8c\	.	.
&(8D\J&)	8g/ 8b-/	.
8GG'\L	4f#/ 4a/)	.
8A\ 8c\	.	.
&(8D\J&)	8a\ (8cc\	.
=9	=9	=9
8GG'\L	4d/ 4b-/	.
8G\ (8B-\	.	.
8D\J)	8c/ 8a/	.
8GG'\L	4B-/ 4g/)	.
(8G\	.	.
8D\J)	8d/	.
=10	=10	=10
8GG'\L	4c/ 4e-/	.
(8G\	.	.
8E-\J)	8c/ 8e-/	.
8GG'\L	(16c/ 16e-/LL	.
.	16d/ 16f/J	.
8G\ (8c\	8e-'/) 8g'/	.
8E-\J)	8c/ 8e-/J	.
=11	=11	=11
*	*^	*
8GG'\L	4.r	[2.d^\	.
8G\ 8B-\	.	.	.
&(8D\J&)	.	.	.
8GG'\L	4r	.	.
8G\ 8B-\	.	.	.
&(8D\J&)	8b-/ (8dd/	.	p
=12	=12	=12	=12
8GG'\L	4a/ 4cc/	2.d\]	.
8A\ 8c\	.	.	.
&(8D\J&)	8g/ 8b-/	.	.
8GG'\L	4f#/ 4a/)	.	.
8A\ 8c\	.	.	.
&(8D\J&)	8a/ (8cc/	.	.
*	*v	*v	*
=13	=13	=13
8GG'\L	4d/ 4b-/	.
8G\ 8B-\	.	.
&(8D\J&)	8c/ 8a/	.
8GG'\L	8B-/ 8g/L)	.
8G\	(8g/	.
&(8D\J&)	8a/J	.
=14	=14	=14
8GG'\L	8b-/L	<
8B-\ (8d\	8cc#/	.
8G\J)	8dd/J	.
8GG'\L	8cc#/ 8ff/L	.
8B-\ (8c#\	8een/	.
8G\J)	8dd/J)	.
=15	=15	=15
8FF'\L	4dd\ 4aa\	>
8A\ (8d\	.	.
8F\J)	8ff\	.
8FF'\L	4dd\	.
8A\ (8d\	.	.
8F\J)	8a/	.
=16	=16	=16
8GG'\L	(8b-/L	.
8B-\ (8d\	8en/ 8cc#/	.
8G\J)	8f/ 8dd/J	.
8GG'\L	8a\ 8ff\L	p
(8c#\	8g\ 8een\	.
8A\J)	8f\ 8dd\J)	.
=17	=17	=17
8D'\L	[4.f/ [4.dd/	.
8A\ (8d\	.	.
8F\J)	.	.
8D'\L	8f/] 8dd/]	.
8A\ (8d\	8r	.
8F\J)	8dd\	.
=18	=18	=18
*	*^	*
8GG'\L	(4ff/	8r	.
8G\ (8Bn\	.	8f\L	.
8D\J)	8dd/	8g\J	.
8GG'\L	4cc/	8r	.
8G\ (8B\	.	8f\L	.
8D\J)	8bn/)	8g\J	.
=19	=19	=19	=19
8CC'\L	4cc/	(8cc\L	.
(8G\	.	8c\ 8e-\	.
8E-\J)	8g/	8g\J	.
8C'\L	4a-^/	8a-\L	.
8F\ (8A-\	.	8d\ 8f\	.
8D\J)	8bn/)	8bn\J	.
=20	=20	=20	=20
8CC'\L	4cc/	(8cc\L	.
(8G\	.	8c\ 8e-\	.
8E-\J)	8g/	8g\J	.
8C'\L	4a-^/	8a-\L	.
8F\ (8A-\	.	8d\ 8f\	.
8D\J)	8bn/	8bn\J)	.
=21	=21	=21	=21
8CC'\L	4.cc/	(8cc\L	.
8E-\ (8G\	.	8e-\	.
8C\J)	.	8g\J	.
8CC'\L	8cc/)	8r	.
8E-\ (8G\	8r	8e-\L	.
8C\J)	8cc/	8g\J	.
=22	=22	=22	=22
8FF#'\L	4ee-/	(8ee-\L	pp
8E-\ (8A\	.	8e-\	.
8C\J)	8a/)	8f#\J	.
8FF#'\L	4ee-/	(8ee-\L	.
8E-\ (8A\	.	8e-\	.
8C\J)	8a/)	8f#\J	.
=23	=23	=23	=23
8FF#'\L	4.ee-/	(8ee-\L	.
8E-\ 8A\	.	8e-\	.
&(8C\J&)	.	8f#\ 8a\J	.
8FF#'\L	&(4ee-/&)	8r	.
8E-\ 8A\	.	8e-\L	.
&(8C\J&)	8dd/	8a\J	.
=24	=24	=24	=24
8GG'\L	4cc/	8r	.
8D\ (8G\	.	8d\L	.
8BB-\J)	8b-/	8g\J	.
8EE-'\L	8a/L	8r	.
8G\ (8B-\	8b-/	8c#\L	.
8E-\J)	8g/J	8g\J)	.
*	*v	*v	*
=25	=25	=25
4DD/	8d/ 8f#/ 8a/ 8dd/	.
.	(8dd'\L	<
8r	8dd'\	.
4r	8dd'\	>
.	8dd'\	.
8r	8dd'\J)	.
=26	=26	=26
*	*^	*
8GGG/ 8GG/	8dd'/L	8r	p
8r	8b-'/	8d'\ 8g'\L	.
8r	8ee-'/J	8f#'\ 8cc'\J	.
4r	(4dd/	8r	.
.	.	8g'\ 8b-'\L	.
8r	8gg/)	8b-'\ 8dd'\J	.
=27	=27	=27	=27
8GGG/ 8GG/	8dd'/L	8r	.
8r	8b-'/	8d'\ 8g'\L	.
8r	8ee-'/J	8f#'\ 8cc'\J	.
4r	(4dd/	8r	.
.	.	8g'\ 8b-'\L	.
8r	8gg/)	8b-'\ 8dd'\J	.
=28	=28	=28	=28
8BBB-/ 8BB-/	(8dd'/L	8r	.
8r	8cc'/	8d'\ 8g'\L	.
8r	8b-'/J)	8d'\ 8g'\J	.
8CC/ 8C/	4a/	8r	.
8r	.	8e-\ 8g\L	.
8r	8a/	8e-\ 8g\J	.
=29	=29	=29	=29
8DD/ 8D/	(4dd/	8r	.
8r	.	8d\ 8f#\L	.
8r	8a/)	8d\ 8f#\J	.
8GG/ 8G/	(4cc/	8r	.
8r	.	8d\ 8a\L	.
8r	8b-/)	8d\ 8g\J	.
=30	=30	=30	=30
8GGG/ 8GG/	8dd'/L	8r	.
8r	8b-'/	8d'\ 8g'\L	.
8r	8ee-'/J	8f#'\ 8cc'\J	.
4r	(4dd/	8r	.
.	.	8g'\ 8b-'\L	.
8r	8gg/)	8b-'\ 8dd'\J	.
=31	=31	=31	=31
8GG/ 8G/	8dd'/L	8r	.
8r	8b-'/	8d'\ 8g'\L	.
8r	8ee-'/J	8f#'\ 8cc'\J	.
4r	(4dd/	8r	.
.	.	8g'\ 8bn'\L	.
8r	8gg/	8b'\ 8dd'\ 8ffn'\J	.
=32	=32	=32	=32
8CC/ 8C/	8gg/L)	8cc\ 8ee-\	>
8r	(8gg/	8r	.
8r	8ee-/J	8r	.
8r	8dd/L	4.r	.
8g'\L	8ee-/	.	.
8e-'\J	8cc/J	.	.
=33	=33	=33	=33
8d'\L	8b-/L	8r	.
8e-'\	8cc/	8g\L	.
&(8c'\J&)	8a/J	8e-\J	.
8d\	8g/L	4.r	.
8r	8a/	.	p
8D\	8c/ 8d/ 8f#/J	.	.
*	*v	*v	*
=34	=34	=34
&(8GG\L&)	8B-/ 8d/ 8g/)	.
8G\ 8B-\	8r	.
&(8D\J&)	8r	.
8GG'\L	4r	.
8G\ 8B-\	.	.
&(8D\J&)	8b-\ (8dd\	mf
=35	=35	=35
8GG'\L	4a\ 4cc\	.
8A\ 8c\	.	.
&(8D\J&)	8g/ 8b-/	.
8GG'\L	4f#/ 4a/	.
8A\ 8c\	.	.
&(8D\J&)	8e-/ 8cc/	.
=36	=36	=36
8GG'\L	4d/ 4b-/)	.
8G\ 8B-\	.	.
&(8D\J&)	8dd\ 8ddd\	.
8GG'\L	4dd\ 4ddd\	>
8G\ 8B-\	.	.
&(8D\J&)	(8d/ 8b-/	.
=37	=37	=37
8GG'\L	4c/ 4a/	.
8G\	.	.
&(8D\J&)	8B-/ 8g/	.
8GG'\L	4A/ 4f#/	.
8c\ 8d\	.	.
&(8D\J&)	8f#/ 8a/	.
=38	=38	=38
8GG'\L	4d/) 4g/	.
8G\ 8B-\	.	.
&(8D\J&)	8dd\ 8ddd\	.
8GG'\L	4dd\ 4ddd\	.
8G\ 8B-\	.	.
&(8D\J&)	8d/ (8b-/	.
=39	=39	=39
8GG'\L	4g/)	pp
8G\ (8B-\	.	.
8D\J)	8dd\ 8ddd\	.
8GG'\L	4dd\ 4ddd\	.
8G\ (8B-\	.	.
8D\J)	8r	.
=40	=40	=40
*^	*	*
4.r	8GG'\L	4r	.
.	8G\ 8B-\	.	.
.	&(8D\J&)	8r	.
8r	4FFF\ 4FF\	([4.f/	pp
8A/ 8c/L	.	.	.
&(8F/J&)	8r	.	.
=41	=41	=41	=41
8r	4BBB-\ 4BB-\	4.f/]	.
8B-/ 8d/L	.	.	.
8F/J	8r	.	.
8r	4CC\ 4C\	4.e-/	.
8G/ 8c/L	.	.	.
&(8E-/J&)	8r	.	.
=42	=42	=42	=42
8r	4DD\	[4.d/	.
8G/ (8B-/L	.	.	.
8D/J)	8r	.	.
8r	4DD\	4d/])	.
8G/ (8B-/L	.	.	.
8D/J)	8r	8r	.
=43	=43	=43	=43
8r	4DD\	2.r	.
8A/ (8c/L	.	.	.
8D/J)	8r	.	.
8r	4DD\	.	.
8F#/ (8A/L	.	.	.
8D/J)	8r	.	.
=44	=44	=44	=44
8r	4GGG\	4.r	.
8G/ (8B-/L	.	.	.
8D/J)	8r	.	.
4r	4r	[4.d^/	.
8r	8r	.	.
=45	=45	=45	=45
8r	4GGG\	8d/]	.
8G/ (8B-/L	.	8r	.
8D/J)	8r	8r	.
4r	4r	[4.d^/	.
8r	8r	.	.
*v	*v	*	*
=46	=46	=46
2.GGG;/	8d/]	.
.	8r	.
.	8r	.
.	4r	.
.	8r;	.
==	==	==
*-	*-	*-
!!!ENC: Craig Stuart Sapp
!!!END: 2004/12/01/
